icons/terminal.svg

<svg xmlns="http://www.w3.org/2000/svg" viewBox="0 0 512 512"><path fill-rule="evenodd" d="M41.255 108.25c50.886 66.38 111.174 146.524 111.174 147.788 0 .867-26.197 36.96-58.215 80.207C62.196 379.492 36 415.129 36 415.438c0 .309 8.461.562 18.803.562h18.803l59.194-80 59.195-80-59.195-80-59.194-80H31.865l9.39 12.25M192 400v16h288v-32H192v16"/></svg>

<svg xmlns="http://www.w3.org/2000/svg" width="512" height="512" viewBox="0 0 512 512" version="1.1">
	<path d="M 41.255 108.250 C 92.141 174.630, 152.429 254.774, 152.429 256.038 C 152.429 256.905, 126.232 292.998, 94.214 336.245 C 62.196 379.492, 36 415.129, 36 415.438 C 36 415.747, 44.461 416, 54.803 416 L 73.606 416 132.800 336 L 191.995 256 132.800 176 L 73.606 96 52.735 96 L 31.865 96 41.255 108.250 M 192 400 L 192 416 336 416 L 480 416 480 400 L 480 384 336 384 L 192 384 192 400" stroke="none" fill="black" fill-rule="evenodd"/>
</svg>
